X: 204
T: Song of the Grass Dance (d)
C: Teton Sioux band 1911-1914
N: Derived from sioux199.krn
O: South Dakota, U.S.A.
N: Teton Sioux Music by Frances Densmore, 1918
Z: transcribed to **kern format by Craig Sapp
L: 1/8
M: 3/4
Q: 1/4=58
K: G clef=treble
%%linebreak <none>
A2(3A B AG2 [I:setbarnb 2]| 
G4E/ E3/ ||  
[M:2/4]G2(3G G E | 
D< DD2- ||  
[M:3/4]D4E/ E3/ ||  
[M:2/4]G2(3G E D ||  
[M:3/4]D4[K:clef=bass]A,/ A,3/ ||  
[M:2/4]B,2(3A, G, G, ||  
[M:3/4]G,4E,/ E,3/ ||  
[M:2/4]G,2(3G, E, D, ||  
[M:3/4]D, D,D,4 | 
D,4E/ E3/ ||  
[M:2/4]G2(3G E D ||  
[M:3/4]D4A,/ A,3/ ||  
[M:2/4]B,2(3A, G, G, ||  
[M:3/4]G,4E,/ E,3/ ||  
[M:2/4]G,2(3G, E, D, ||  
[M:3/4]D, D,D,4 ||  
[M:2/4]D,4 |]  



